!!!OTL: Lebenseile (3-12), S. 33f
!!!id: K1149
**kern
*clefG2
*k[]
*G:
{8d
=1
8d
8g
8g
8g
8a
8b
=2
8.b
16a
8a
8a
8b
8cc
=3
4.b}
4r
=4
{8d
=5
8d
8g
8g
8g
8a
8b
=6
8.b
16a
8a
8a
8b
8cc
=7
4.b}
4r
=8
{16g
16b
=9
8.dd
16dd
8dd
8.dd
16ee
8dd
=10
8.dd
16cc
8cc
8cc}
8r
=11
{8dd
=12
4b
8b
8dd
8cc
8b
=13
8.b
16a
8a
4a}
=14
{8dd
=15
8.b
16cc
8b
8a
8g
8a
=16
4.g}
=17
{4.a
=18
8.b
16cc
8b
8a
8g
8a
=19
4.g}
4r
==
*-
!!!minrhy: 16
!!!meters: 6/8 ]  ZZ[6
!!!cut: Lebenseile (3-12), S. 33f
!!!reg: Luxemburg
!!!trd: KINTZELE, Guillaume: An der Ucht, Bd. 3 Luxemburg 1928
!!!rhy1: X_  X_X_X_X_X_X_  X_.XX_X_X_X_  X__.0__
!!!rhy2: X_  X_X_X_X_X_X_  X_.XX_X_X_X_  X__.0__
!!!key: K1149  16  G 6/8 ]  ZZ[6
!!!mod: SECHSTONSKALA DUR ?]  AMBITUS[9
!!!kad: 334211
!!!akz: -51323_-51323_5554_3532_321_2321_
!!!fot: 'a__a__b__c__d__e__
!!!for: 'a__a__b__c__d__dv_
!!!fok: '/__/__^a_\__\__^d_
!! PHRAS[AUFTAKTIG]
!!!fkt: melancholisch, betrachtendes Lied
!!!bem: in der Quelle mit einer 2. Stimme versehen
!! KINTZELE
!! PR[16] 2K[2] 2G[5] 3K[15] 3G[3] 4A[5] 4Ü[0] 5A[0] 6K[0] 6G[6]
!! 7K[0] 7G[0] 8A[0] MEHR[0] SI[35] ABS[62] SR[6] SP[29]
!! ST[12] 2k[11] 2g[21] 3k[2] 3g[5] 4d[3] 4ü[0] 5d[3] 6k[3] 6g[0]
!! 7k[0] 7g[0] 8d[0] mehr[0] si[48] dm[-13] sr[32] sp[16]
!! 1F[70] 2F[22] 3F[0] 4F[0] LF[0] 2P[9] 3P[0] 4P[0] TRI[0] DF[3] AB[69]
!! TF[0] U3K[0] U3[0] U4[0] U4Ü[0] U5[5] U6K[0] U6[0] U7K[0] U7[11]
!! N1[25] N2K[0] N2[17] N3K[0] N3[11] N4[8] N4Ü[0] N5[13] N6K[0] N6[10]
!!!n7k: 0] N7[0] O1[0] O2K[0] O2[0] O3K[0] O3[0] HÖ[0
